svgs/light/kit-medical.svg

<svg xmlns="http://www.w3.org/2000/svg" viewBox="0 0 576 512"><!--! Font Awesome Pro 6.6.0 by @fontawesome - https://fontawesome.com License - https://fontawesome.com/license (Commercial License) Copyright 2024 Fonticons, Inc. --><path d="M128 448l320 0 0-384L128 64l0 384zm-32 0L96 64 64 64C46.3 64 32 78.3 32 96l0 320c0 17.7 14.3 32 32 32l32 0zM64 32l32 0 16 0 16 0 320 0 16 0 16 0 32 0c35.3 0 64 28.7 64 64l0 320c0 35.3-28.7 64-64 64l-32 0-16 0-16 0-320 0-16 0-16 0-32 0c-35.3 0-64-28.7-64-64L0 96C0 60.7 28.7 32 64 32zM480 448l32 0c17.7 0 32-14.3 32-32l0-320c0-17.7-14.3-32-32-32l-32 0 0 384zM272 144l32 0c17.7 0 32 14.3 32 32l0 32 32 0c17.7 0 32 14.3 32 32l0 32c0 17.7-14.3 32-32 32l-32 0 0 32c0 17.7-14.3 32-32 32l-32 0c-17.7 0-32-14.3-32-32l0-32-32 0c-17.7 0-32-14.3-32-32l0-32c0-17.7 14.3-32 32-32l32 0 0-32c0-17.7 14.3-32 32-32zm0 32l0 48c0 4.2-1.7 8.3-4.7 11.3s-7.1 4.7-11.3 4.7l-48 0 0 32 48 0c8.8 0 16 7.2 16 16l0 48 32 0 0-48c0-8.8 7.2-16 16-16l48 0 0-32-48 0c-8.8 0-16-7.2-16-16l0-48-32 0z"/></svg>

<svg xmlns="http://www.w3.org/2000/svg" viewBox="0 0 576 512"><!--! Font Awesome Pro 6.4.0 by @fontawesome - https://fontawesome.com License - https://fontawesome.com/license (Commercial License) Copyright 2023 Fonticons, Inc. --><path d="M128 448H448V64H128V448zm-32 0V64H64C46.3 64 32 78.3 32 96V416c0 17.7 14.3 32 32 32H96zM64 32H96h16 16H448h16 16 32c35.3 0 64 28.7 64 64V416c0 35.3-28.7 64-64 64H480 464 448 128 112 96 64c-35.3 0-64-28.7-64-64V96C0 60.7 28.7 32 64 32zM480 448h32c17.7 0 32-14.3 32-32V96c0-17.7-14.3-32-32-32H480V448zM272 144h32c17.7 0 32 14.3 32 32v32h32c17.7 0 32 14.3 32 32v32c0 17.7-14.3 32-32 32H336v32c0 17.7-14.3 32-32 32H272c-17.7 0-32-14.3-32-32V304H208c-17.7 0-32-14.3-32-32V240c0-17.7 14.3-32 32-32h32V176c0-17.7 14.3-32 32-32zm0 32v48c0 4.2-1.7 8.3-4.7 11.3s-7.1 4.7-11.3 4.7H208v32h48c8.8 0 16 7.2 16 16v48h32V288c0-8.8 7.2-16 16-16h48V240H320c-8.8 0-16-7.2-16-16V176H272z"/></svg>
